assets/img/braze_icons/attachment-01.svg

<svg fill="none" height="24" viewBox="0 0 24 24" width="24" xmlns="http://www.w3.org/2000/svg"><path clip-rule="evenodd" d="m17.9705 4.18194c-.9763-.97631-2.5592-.97631-3.5355 0l-9.01564 9.01566c-1.65973 1.6597-1.65973 4.3506 0 6.0104 1.65972 1.6597 4.35068 1.6597 6.01044 0l9.0156-9.0157c.3905-.39048 1.0237-.39048 1.4142 0 .3905.3906.3905 1.0237 0 1.4143l-9.0156 9.0156c-2.4408 2.4407-6.39808 2.4407-8.83886 0-2.44077-2.4408-2.44077-6.3981 0-8.8389l9.01566-9.01557c1.7573-1.75736 4.6066-1.75736 6.3639 0 1.7574 1.75736 1.7574 4.6066 0 6.36396l-8.662 8.66201c-1.07398 1.074-2.81519 1.074-3.88913 0-1.07394-1.0739-1.07394-2.8151 0-3.889l7.60143-7.60144c.3905-.39052 1.0237-.39052 1.4142 0s.3905 1.02369 0 1.41421l-7.60142 7.60143c-.29289.2929-.29289.7677 0 1.0606.2929.2929.76777.2929 1.06066 0l8.66206-8.66203c.9763-.97631.9763-2.55922 0-3.53553z" fill="#801ed7" fill-rule="evenodd"/></svg>

<svg width="24" height="24" viewBox="0 0 24 24" fill="none" xmlns="http://www.w3.org/2000/svg">
<path fill-rule="evenodd" clip-rule="evenodd" d="M17.9705 4.18194C16.9942 3.20563 15.4113 3.20563 14.435 4.18194L5.41936 13.1976C3.75963 14.8573 3.75963 17.5482 5.41936 19.208C7.07908 20.8677 9.77004 20.8677 11.4298 19.208L20.4454 10.1923C20.8359 9.80182 21.4691 9.80182 21.8596 10.1923C22.2501 10.5829 22.2501 11.216 21.8596 11.6066L12.844 20.6222C10.4032 23.0629 6.44592 23.0629 4.00514 20.6222C1.56437 18.1814 1.56437 14.2241 4.00514 11.7833L13.0208 2.76773C14.7781 1.01037 17.6274 1.01037 19.3847 2.76773C21.1421 4.52509 21.1421 7.37433 19.3847 9.13169L10.7227 17.7937C9.64872 18.8677 7.90751 18.8677 6.83357 17.7937C5.75963 16.7198 5.75963 14.9786 6.83357 13.9047L14.435 6.30326C14.8255 5.91274 15.4587 5.91274 15.8492 6.30326C16.2397 6.69378 16.2397 7.32695 15.8492 7.71747L8.24778 15.3189C7.95489 15.6118 7.95489 16.0866 8.24778 16.3795C8.54068 16.6724 9.01555 16.6724 9.30844 16.3795L17.9705 7.71747C18.9468 6.74116 18.9468 5.15825 17.9705 4.18194Z" fill="#801ED7"/>
</svg>
